X:56
T:Gigue de Terrebonne
R:reel quebecois
C:Alfred Montmarquette
M:C
K:D
(3ABc|"D"ddcd BAFA |ddcd "A"e2 Bc|"D"d2cd BAFD| "A7"GFEG "D"FDFA|
"D"d2cd BAFA |ddcd "A"eABc|"D"d2cd BdAd| "A7"fdec"D"d2z2:|
|:Ad|"D"f2fa "A"gfed |"D"f2fd "A"Bcde|"D"f2fa "G"gfed |"A7"cdeg "D"fddd|
"D"f2fa "A"gfed| "D"f2fd "A"Bcde|"D"f2fa "G"gfed |"A7"cABc "D"d2:|
